X:1
T:Title
%%score [ ( 1 2 ) ( 3 4 ) ]
L:1/8
Q:1/4=96
M:4/4
K:D
V:1 treble nm="Midi_74"
V:2 treble 
V:3 bass nm="Midi_69"
V:4 bass 
V:1
"^Dies Dominica (76. 76. D)""^John Bacchus Dykes\n(1823-76)""^V. S. S. Coles\n(1845-1929)""^We pray Thee, heavenly Father" F2 | %1
 A2 G2 F2 E2 | D4 D2 d2 | c2 B2 G2 B2 | A6 || F2 | A2 G2 F2 E2 | F4 F2 ^G2 | A2 c2 B2 ^G2 | F6 || %10
 A2 | A2 d2 c2 B2 | A4 A2 G2 | F2 G2 A2 B2 | E6 || C2 x6 | D2 F2 A2 d2 | d4 D2 E2 | F2 A2 G2 E2 |] %19
 D6 |] %20
V:2
 D2 | D2 D2 D2 C2 | D4 D2 D2 | D2 D2 B,3 C | D6 || A,2 | F2 E2 D2 C2 | D4 F2 F2 | F2 F2 ^E2 E2 | %9
w: |||||||||
w: |||||||||
w: |||||||||
w: |||||||||
 F6 || C2 | D2 D2 E2 =F2 | (E2 C2) D2 E2 | D2 D2 D2 D2 | (D2 C2 B,2) || A,2 A,2 D2 D2 | F2 D4 D2 | %17
w: ||||all de- file- ment|free, * *|||
w: ||||help us in our|strife, * *|||
w: ||||on our souls out|poured, * *|||
w: ||||Thee our hope is|stayed, * *|||
 D2 D2 D2 C2 | C2 D6 |] x6 |] %20
w: |||
w: |||
w: |||
w: |||
V:3
 A,2 | F,2 B,2 A,2 G,2 | (A,2 G,2) F,2 F,2 | F,2 G,2 D,3 E, | F,6 || D,2 | D,2 E,2 F,2 G,2 | %7
w: We|pray Thee, heaven- ly|Fa\- * ther, to|hear us in Thy|love,|And|pour up- on Thy|
w: Be|Thou our Guide and|Help\- * er, O|Je- sus Christ, we|pray;|So|may we well ap-|
w: And|Thou, cre- a- tor|Spi\- * rit, look|on us, we are|Thine;|Re-|new in us Thy|
w: O|Tri- ni- ty of|Per\- * sons, O|U- ni- ty most|high,|On|Thee a- lone re-|
 (F,2 ^G,2) A,2 D2 | C2 A,2 ^G,2 B,2 | A,6 || =G,2 | F,2 A,2 G,2 ^G,2 | (A,2 =G,2) F,2 A,2 | %13
w: child\- * ren the|unc- tion from a-|bove;|that|so in love a-|bid\- * ing, from|
w: proach * Thee, if|Thou wilt be the|Way;|Thou,|ve- ry Truth, hast|pro\- * mised to|
w: gra\- * ces, up-|on our dark- ness|shine;|that,|with Thy be- ne-|dic\- * tion up-|
w: ly\- * ing, Thy|ser- vants would draw|nigh:|un-|worth- y in our|weak\- * ness, on|
 A,2 D,2 F,2 G,2 | G,6 || G,2 x6 | F,2 A,2 F,2 A,2 | (A,2 G,2) F,2 B,2 | A,2 F,2 E,2 G,2 |] F,6 |] %20
w: ||we|may in pure- ness|of\- * fer our|Eu- char- ist to|Thee.|
w: ||food|of the wea- ry|pil\- * grim, e-|ter- nal source of|life.|
w: ||we|may re- ceive in|glad\- * ness the|bo- dy of the|Lord.|
w: ||and|blessed by Thy for-|give\- * ness, we|will not be a-|fraid.|
V:4
 D,2 | D,2 D,2 D,2 E,2 | (F,2 E,2) D,2 B,,2 | A,,2 G,,2 G,,2 G,,2 | D,6 || D,2 | %6
 A,,2 A,,2 A,,2 A,,2 | D,4 C,2 B,,2 | C,2 C,2 C,2 C,2 | F,6 || E,2 | D,2 F,2 E,2 D,2 | %12
 C,2 A,,2 B,,2 C,2 | D,2 B,,2 A,,2 G,,2 | A,,6 || E,2 x6 | D,2 D,2 =C,2 C,2 | B,,4 A,,2 G,,2 | %18
 A,,2 A,,2 A,,2 A,,2 |] D,6 |] %20

